X:119
T:Hornpipe TS.119
M:C|
L:1/8
Q:1/2=90
S:Thomas Sands’ MS,1810,Lincolnshire
R:.hornpipe
C:Pencil note “Bonum” in MS
O:England;Lincolnshire
Z:vmp.Ruairidh Greig, 2011
K:D
z”rest added”|dcdA GFED|Bcde dcBA|dAFA dfaf|gbed dcBA|
dcdA GFED|Bcde dcBA|dAFA dfaf|bgecd3:|
|:z”rest added”|afdf gece|dcdA GFED|GAFGE2ef|gefd dcBA|
afdf gece|dcdA GFED|b2a2g2f2|gedcd3:|]

